X: 15352
T: Glakey Two-Step, The
R: slide
M: 12/8
K: Gmajor
|:AA/B/c|ded ^c2 d B2 d G2 B|cdc B2 c A2 c A2 G|
FAd fed FAd f2 e|1 ded cdc BcB:|2 ded cAF G3||
GDc|:BDG B^AB BDG B2 B|E^DE A^GA cAc e2 ^c|
dAd fed FAd f2 e|1 ded c2 d B2 c A2 D:|2 ded cAd G3||

